X:3
T:The Blacksmith
C:Traditional
S:Andy Irvine
K:Ddor
M:4/4
L:1/8
(ed) | c2 A2 c2 de | g6 de | e3 A GA (A2 | A6) ed | c2 A2 c2 de | g6 de | e3 A GA (A2 | A6) de |
g2 g2 ag ed | e6 ed | c3 A cd (d2 | d6) AB | c2 d2 eg ^fd | e6 AB | cd e2 G2 A2 | A6 :|
%%textfont Times-Roman 24
%%begintext
A Blacksmith courted me, nine months and better
He fairly one my heart, wrote me a letter
With his hammer in his hand he looked quite clever
And if I was with my love, I'd live forever

But where has my love gone, with his cheeks like roses
And his good black billycock on, all decked 'round with primroses
I'm afraid the scorching sun will shine, and burn his beauty
And if I was with my love, I'd do my duty

Strange news has come to town, strange news is carried
Strange news flies up and down, that my love is married
I wish them both much joy, though they can't hear me
And may God reward him well for the slighting of me

Don't you remember when you lay beside me?
And you said you'd marry me, and not deny me
If I said I'd marry you, it was only for to try you
So bring your witness love, and I'll not deny you

But witness have I none, save God almighty
And may he reward you well for the slighting of me
Her lips grew pale and wan, it made her poor heart to tremble
To think she'd loved the one, and he proved deceitful
%%endtext
%%newpage

